X: 33232
T: Puffin, The
R: jig
M: 6/8
K: Gmajor
D|GAB ABc|Bcd ege|dBG GFG|AFD DEF|
GAB ABc|Bcd ege|dBG AGA|G3G2:|
|:A|BdB BdB|cec cec|BeB BeB|dcB A2A|
BdB BdB|cec cec|BeB dBA|G3G2:|

